X:1
T:Gdy się Chrystus rodzi
T:Gdy się Chrystus rodzi
T:Piotr Harasimiuk
T:EMA 2016
T:EMA 2016
C:Piotr Harasimiuk
Z:EMA 2016
%%score { ( 1 2 ) | ( 3 5 ) | 4 }
L:1/8
M:4/4
K:D
V:1 treble nm="Organo" snm="Org."
V:2 treble 
V:3 bass 
V:5 bass 
V:4 bass 
V:1
 A2 F2 d2 B2 | B4 A4 | F2 D2 G2 E2 | E4 D4 | z3 g fedc | d2 ^G2 Aef=g | a4 g4- | g3 d/c/ d4 | %8
 E2 EF G2 E2 | F2 FG A2 F2 | A8- | A8 | A3 A Ad/c/ B/A/G/F/ | B3 B Be/d/ c/B/A/^G/ | %14
 c3 c cf/e/ d/c/B/^A/ | B2 A2 B2 G2 | F4 E4 | D8 |] %18
V:2
 FEDC B,DEF | ^G2 ED C4 | DED=C B,DED | C2 B,C D4 | x8 | x8 | fg f2 edcB | A3 G F4 | C2 CD E2 C2 | %9
 D8 | C2 CD E2 C2 | D2 DE F2 D2 | F3 G F2 z2 | G3 A ^G2 z2 | A3 B ^A2 z2 | DFGF ED C2 | D6 C2 | %17
 x8 |] %18
V:3
 D,2 F,2 G,B,CD | E2 ^G,2 A,B,/A,/ =G,F,/E,/ | D,2 F,2 G,B,CB, | A,2 ^G,A, [D,F,]4 | %4
 z D=CB, A,G,F,E, | D,EDE C4 | D4 G,B,A,G, | A,2 A,,2 D,4 | E,8 | D,2 D,E, F,2 D,2 | %10
 E,2 E,F, G,2 E,2 | F,2 F,G, A,2 F,2 | D3 C D2 z2 | D3 ^D E2 z2 | E3 ^E F2 z2 | z A,G,F, G,2 E,2 | %16
 D,2 F,2 A,2 G,2 | F,8 |] %18
V:4
 z8 | z8 | z8 | z8 | A,2 F,2 D2 B,2 | B,4 A,4 | F,2 D,2 G,2 E,2 | E,4 D,4 | A,,8- | A,,8 | %10
 A,6 G,2 | F,4 D,4 | F,3 E, D,2 z2 | G,3 F, E,2 z2 | A,3 ^G, F,2 z2 | B,,2 z2 z4 | A,,8 | %17
 [D,,D,]8 |] %18
V:5
 x8 | x8 | x8 | x8 | x8 | x8 | x8 | x8 | A,,8- | A,,8- | A,,8- | A,,8 | D,3 A, A,2 z2 | %13
 G,3 B, B,2 z2 | A,3 C C2 z2 | z4 E,2 ^A,,2 | A,,8- | A,,8 |] %18

